X:6045
T:Gan Ainm (from Siobhan Egan)
R:jig
D:Augusta Summer Concert Souvenir: 1997
Z:Devin McCabe
M:C|
L:1/8
K:D
d2D FED|~=c3 ed^c|dcA GEA|1DED fge:|2DED DFA|
!:~d3 efg|fed cBA|~d3 efg|fdc def|
!gbg ~f3|ecA ABc|dcA GEA|1DED DFA:|2DED fge||
